proprietary/assets/icons/computer-en-internet/hybride-laptop.svg

<svg height="64" viewBox="0 0 64 64" width="64" xmlns="http://www.w3.org/2000/svg"><path d="m0 0h64v64h-64z" fill="none"/><path d="m13 41h38c2.2092 0 4-1.7908 4-4v-24c0-2.2092-1.7908-4-4-4h-38c-2.2092 0-4 1.7908-4 4v24c0 2.2092 1.7908 4 4 4zm38-18.2c1.215 0 2.2.985 2.2 2.2s-.985 2.2-2.2 2.2-2.2-.985-2.2-2.2.985-2.2 2.2-2.2zm-38-9.8h34v24h-34z"/><path d="m58.7147 51.1724-2.9153-6.4138c-.4868-1.071-1.5547-1.7586-2.7312-1.7586h-42.1364c-1.1765 0-2.2443.6876-2.7311 1.7586l-2.9153 6.4138c-.6021 1.3242.366 2.8276 1.8206 2.8276h49.788c1.4546 0 2.4227-1.5034 1.8207-2.8276zm-33.7147-.1724 1.5-4h11l1.5 4z"/></svg>

<?xml version="1.0" encoding="utf-8"?>
<!-- Generator: Adobe Illustrator 19.1.0, SVG Export Plug-In . SVG Version: 6.00 Build 0)  -->
<svg version="1.2" baseProfile="tiny" xmlns="http://www.w3.org/2000/svg" xmlns:xlink="http://www.w3.org/1999/xlink" x="0px"
	 y="0px" width="64px" height="64px" viewBox="0 0 64 64" xml:space="preserve">
<g id="_x36_4px_Box">
	<rect fill="none" width="64" height="64"/>
</g>
<g id="Icon">
	<g>
		<path d="M13,41h38c2.2092,0,4-1.7908,4-4V13c0-2.2092-1.7908-4-4-4H13c-2.2092,0-4,1.7908-4,4v24C9,39.2092,10.7908,41,13,41z
			 M51,22.8c1.215,0,2.2,0.985,2.2,2.2s-0.985,2.2-2.2,2.2s-2.2-0.985-2.2-2.2S49.785,22.8,51,22.8z M13,13h34v24H13V13z"/>
		<path d="M58.7147,51.1724l-2.9153-6.4138C55.3126,43.6876,54.2447,43,53.0682,43H10.9318c-1.1765,0-2.2443,0.6876-2.7311,1.7586
			l-2.9153,6.4138C4.6833,52.4966,5.6514,54,7.106,54h49.788C58.3486,54,59.3167,52.4966,58.7147,51.1724z M25,51l1.5-4h11l1.5,4H25
			z"/>
	</g>
</g>
</svg>
